frontend/src/images/logo-white.svg

<svg width="197" height="23" viewBox="0 0 197 23" fill="none" xmlns="http://www.w3.org/2000/svg">
    <path d="M96.8308 12.8122L94.5843 7.25043L92.3376 12.8122H96.8308ZM101.637 18.2581H99.0385L97.7295 15.0412H91.4584L90.1688 18.2581H87.6879L93.2362 4.69287H96.0104L101.637 18.2581Z" fill="#34B7AA" />
    <path d="M105.273 12.7117C105.273 13.3321 105.361 13.865 105.537 14.3109C105.712 14.756 105.957 15.1242 106.269 15.4156C106.582 15.706 106.953 15.9195 107.383 16.0551C107.813 16.1908 108.282 16.2588 108.79 16.2588C109.818 16.2588 110.616 16.0001 111.183 15.4834C111.749 14.9666 112.033 14.1205 112.033 12.9441V4.68911H114.475V12.6926C114.475 13.6876 114.341 14.5495 114.074 15.28C113.807 16.0094 113.423 16.614 112.922 17.0919C112.42 17.5698 111.814 17.9221 111.105 18.1477C110.395 18.3741 109.59 18.4868 108.692 18.4868C107.689 18.4868 106.823 18.3543 106.093 18.0898C105.364 17.8253 104.755 17.4471 104.267 16.9562C103.778 16.4653 103.417 15.8737 103.182 15.1832C102.948 14.4915 102.831 13.7135 102.831 12.8473V4.68911H105.273V12.7117Z" fill="#34B7AA" />
    <path d="M128.227 6.92118H123.616V18.2581H121.174V6.92118H116.641V4.69287H128.227V6.92118Z" fill="#34B7AA" />
    <path d="M131.634 11.4679C131.634 12.1273 131.735 12.7471 131.936 13.3287C132.138 13.9097 132.441 14.4136 132.845 14.8404C133.249 15.2665 133.747 15.6058 134.339 15.8574C134.932 16.1096 135.619 16.2354 136.4 16.2354C137.13 16.2354 137.784 16.1195 138.364 15.8869C138.944 15.6537 139.438 15.3313 139.849 14.9174C140.259 14.5043 140.575 14.0041 140.796 13.4157C141.018 12.828 141.129 12.1792 141.129 11.4679C141.129 10.8094 141.027 10.1888 140.826 9.608C140.624 9.02626 140.321 8.52237 139.917 8.09634C139.513 7.67018 139.015 7.33088 138.423 7.0786C137.83 6.8271 137.143 6.70055 136.362 6.70055C135.632 6.70055 134.975 6.81721 134.388 7.04964C133.802 7.28217 133.304 7.6084 132.894 8.02847C132.484 8.44845 132.171 8.94853 131.956 9.53015C131.741 10.1118 131.634 10.7575 131.634 11.4679ZM129.055 11.4489C129.055 10.4282 129.227 9.49132 129.573 8.63903C129.918 7.78606 130.409 7.04964 131.048 6.42997C131.686 5.80933 132.454 5.32843 133.353 4.9862C134.252 4.64375 135.261 4.47233 136.381 4.47233C137.475 4.47233 138.475 4.63386 139.38 4.95636C140.285 5.27964 141.057 5.74157 141.695 6.34218C142.333 6.94297 142.828 7.67626 143.18 8.54222C143.531 9.40753 143.707 10.3893 143.707 11.4877C143.707 12.5085 143.535 13.4446 143.19 14.2977C142.844 15.1499 142.353 15.8869 141.715 16.5069C141.076 17.1273 140.304 17.6082 139.4 17.9507C138.494 18.2929 137.488 18.4644 136.381 18.4644C135.287 18.4644 134.287 18.3059 133.382 17.9896C132.477 17.6732 131.705 17.2142 131.067 16.6135C130.429 16.0129 129.934 15.2766 129.582 14.4042C129.231 13.5323 129.055 12.5474 129.055 11.4489Z" fill="#34B7AA" />
    <path d="M155.898 6.92118H151.287V18.2581H148.845V6.92118H144.313V4.69287H155.898V6.92118Z" fill="#34B7AA" />
    <path d="M167.075 12.3861H160.784V16.0291H168.013V18.2581H158.343V4.69287H167.798V6.92118H160.784V10.1579H167.075V12.3861Z" fill="#34B7AA" />
    <path d="M182.015 16.7592C181.846 16.9658 181.608 17.1692 181.302 17.3689C180.996 17.5693 180.634 17.75 180.218 17.9119C179.801 18.0734 179.335 18.2059 178.821 18.3089C178.306 18.4125 177.756 18.4644 177.17 18.4644C176.05 18.4644 175.034 18.3027 174.122 17.9795C173.211 17.6571 172.432 17.1943 171.788 16.5936C171.143 15.993 170.641 15.2604 170.283 14.3945C169.925 13.5291 169.746 12.5474 169.746 11.4489C169.746 10.4282 169.922 9.49132 170.274 8.63903C170.625 7.78606 171.126 7.04964 171.778 6.42997C172.429 5.80933 173.214 5.32843 174.132 4.9862C175.05 4.64375 176.076 4.47233 177.209 4.47233C178.29 4.47233 179.215 4.60493 179.983 4.86945C180.752 5.13472 181.338 5.40921 181.742 5.69348V9.06529C181.533 8.76782 181.276 8.47739 180.97 8.19314C180.664 7.90879 180.318 7.65729 179.934 7.43687C179.55 7.21813 179.127 7.03978 178.665 6.90405C178.202 6.76842 177.717 6.70055 177.209 6.70055C176.467 6.70055 175.796 6.81721 175.197 7.04964C174.598 7.28217 174.09 7.60537 173.673 8.01859C173.256 8.43243 172.937 8.93249 172.716 9.52028C172.494 10.1087 172.384 10.7575 172.384 11.4679C172.384 12.1273 172.484 12.7441 172.686 13.3189C172.888 13.8936 173.187 14.3945 173.585 14.8206C173.982 15.2474 174.48 15.5859 175.08 15.8383C175.678 16.0898 176.369 16.2223 177.15 16.2354C177.749 16.2354 178.3 16.1705 178.801 16.0417C179.303 15.9129 179.759 15.7383 180.169 15.5181C180.579 15.2992 180.941 15.0409 181.253 14.7436C181.565 14.4464 181.82 14.1232 182.015 13.7748V16.7592Z" fill="#34B7AA" />
    <path d="M194.491 12.3861H187.008V18.2581H184.566V4.69287H187.008V10.1579H194.491V4.69287H196.932V18.2581H194.491V12.3861Z" fill="#34B7AA" />
    <path d="M11.4436 11.0318L7.08545 8.32008V11.5814L11.4436 14.2925L21.8751 6.66673C21.5052 5.85885 21.0425 5.10315 20.501 4.40997L11.4436 11.0318Z" fill="white" />
    <path d="M22.8957 11.3561C22.8957 10.6605 22.8327 9.97917 22.7117 9.31963L20.2469 11.122C20.2485 11.1999 20.2509 11.278 20.2509 11.3561C20.2509 16.1701 16.3028 20.0864 11.4475 20.0864C6.59448 20.0864 2.64642 16.1701 2.64642 11.3561C2.64642 6.54215 6.59448 2.62363 11.4475 2.62363C13.2881 2.62363 14.9972 3.18715 16.4122 4.14731L18.6385 2.51977C16.6728 0.944551 14.1711 -3.8147e-05 11.4475 -3.8147e-05C5.12605 -3.8147e-05 0 5.08329 0 11.3561C0 17.6274 5.12605 22.71 11.4475 22.71C17.7697 22.71 22.8957 17.6274 22.8957 11.3561Z" fill="white" />
    <path d="M35.6149 10.2592C34.0245 9.88607 32.6529 9.56602 32.6529 8.46535C32.6529 6.99232 34.4795 6.83391 35.2674 6.83391C36.3563 6.83391 36.9764 6.98225 37.7892 7.34678C38.1826 7.0587 39.9792 5.74575 39.9792 5.74575C38.7951 4.99789 37.015 4.41325 35.2853 4.41325C31.1618 4.41325 29.6925 6.58728 29.6925 8.62386C29.6925 11.5543 32.2628 12.1653 34.53 12.7041C36.1219 13.0811 37.498 13.4082 37.498 14.5258C37.498 15.0997 37.1543 16.0613 34.8454 16.0613C33.3116 16.0613 31.6347 15.5259 30.4425 14.6642L29.4409 16.9372C30.655 17.8771 32.7599 18.4829 34.825 18.4829C38.2457 18.4829 40.4564 16.835 40.4564 14.2919C40.4564 11.3895 37.8839 10.7901 35.6149 10.2592Z" fill="white" />
    <path d="M49.861 15.9752H46.1718V12.4939H49.861C51.5443 12.4939 52.399 13.073 52.399 14.2355C52.399 15.4001 51.568 15.9752 49.861 15.9752ZM46.1718 10.2293H49.3235H46.1718ZM46.1718 6.9062H49.3235C51.3098 6.9062 51.7275 7.81415 51.7275 8.56736C51.7275 9.66177 50.8975 10.2293 49.3235 10.2293H46.1718V6.9062ZM52.9842 11.2269L52.8434 11.1793L52.9741 11.109C54.1042 10.5018 54.7242 9.4495 54.7242 8.14661C54.7242 5.94997 52.8489 4.6417 49.7076 4.6417H43.2139V18.2397H50.0914C53.5116 18.2397 55.3947 16.9331 55.3947 14.5586C55.3947 12.941 54.5165 11.728 52.9842 11.2269Z" fill="white" />
    <path d="M65.4197 6.90611L68.5171 4.6417H58.1525V18.2397H68.5171V15.9753H61.1096V12.4937H67.4279V10.2292H61.1096V6.90611H65.4197Z" fill="white" />
    <path d="M74.2267 6.90611H76.8495C78.7444 6.90611 79.7869 7.83202 79.7869 9.51578C79.7869 11.1972 78.7444 12.1253 76.8495 12.1253H74.2267V6.90611ZM82.9609 18.2397L79.9507 13.8231C81.7268 13.0535 82.7514 11.5399 82.7514 9.50795C82.7514 6.50733 80.5142 4.6417 76.9116 4.6417H71.2686V18.2397H74.2267V14.3883H76.9116C76.9966 14.3883 77.0794 14.3859 77.1627 14.3836L79.791 18.2397H82.9609Z" fill="white" />
</svg>

<svg width="197" height="23" fill="none" xmlns="http://www.w3.org/2000/svg"><path d="M96.83 12.812L94.585 7.25l-2.246 5.562h4.493zm4.807 5.446h-2.599l-1.308-3.217h-6.272l-1.29 3.217h-2.48l5.548-13.565h2.774l5.627 13.565zM105.273 12.712c0 .62.088 1.153.264 1.599.175.445.42.813.732 1.105.313.29.684.503 1.114.64.43.135.899.203 1.407.203 1.028 0 1.826-.259 2.393-.776.566-.516.85-1.363.85-2.539V4.69h2.442v8.004c0 .995-.134 1.857-.401 2.587-.267.73-.651 1.334-1.152 1.812a4.628 4.628 0 01-1.817 1.056c-.71.226-1.515.339-2.413.339-1.003 0-1.869-.133-2.599-.397-.729-.265-1.338-.643-1.826-1.134a4.548 4.548 0 01-1.085-1.773c-.234-.691-.351-1.47-.351-2.336V4.69h2.442v8.023zM128.227 6.921h-4.611v11.337h-2.442V6.921h-4.533V4.693h11.586V6.92zM131.634 11.468c0 .66.101 1.28.302 1.86.202.582.505 1.086.909 1.512.404.427.902.766 1.494 1.017.593.253 1.28.378 2.061.378.73 0 1.384-.116 1.964-.348a4.346 4.346 0 001.485-.97c.41-.413.726-.913.947-1.501a5.47 5.47 0 00.333-1.948 5.65 5.65 0 00-.303-1.86 4.14 4.14 0 00-.909-1.512 4.41 4.41 0 00-1.494-1.017c-.593-.252-1.28-.378-2.061-.378-.73 0-1.387.116-1.974.349a4.244 4.244 0 00-1.494.978c-.41.42-.723.92-.938 1.502a5.553 5.553 0 00-.322 1.938zm-2.579-.02c0-1.02.172-1.957.518-2.809a6.357 6.357 0 011.475-2.209 6.652 6.652 0 012.305-1.444c.899-.342 1.908-.514 3.028-.514 1.094 0 2.094.162 2.999.484.905.324 1.677.786 2.315 1.386a6.164 6.164 0 011.485 2.2c.351.866.527 1.847.527 2.946 0 1.02-.172 1.957-.517 2.81a6.396 6.396 0 01-1.475 2.209c-.639.62-1.411 1.101-2.315 1.444-.906.342-1.912.513-3.019.513-1.094 0-2.094-.158-2.999-.474-.905-.317-1.677-.776-2.315-1.377a6.143 6.143 0 01-1.485-2.209c-.351-.872-.527-1.857-.527-2.955zM155.898 6.921h-4.611v11.337h-2.442V6.921h-4.532V4.693h11.585V6.92zM167.075 12.386h-6.291v3.643h7.229v2.23h-9.67V4.692h9.455V6.92h-7.014v3.237h6.291v2.228zM182.015 16.76a3.11 3.11 0 01-.713.609c-.306.2-.668.381-1.084.543a8.495 8.495 0 01-3.048.552c-1.12 0-2.136-.161-3.048-.484-.911-.323-1.69-.786-2.334-1.386a6.192 6.192 0 01-1.505-2.2c-.358-.865-.537-1.847-.537-2.945 0-1.02.176-1.958.528-2.81a6.334 6.334 0 011.504-2.209c.651-.62 1.436-1.102 2.354-1.444.918-.342 1.944-.514 3.077-.514 1.081 0 2.006.133 2.774.397.769.266 1.355.54 1.759.824v3.372a5.564 5.564 0 00-.772-.872 5.635 5.635 0 00-1.036-.756 5.933 5.933 0 00-1.269-.533 5.151 5.151 0 00-1.456-.203c-.742 0-1.413.116-2.012.349a4.39 4.39 0 00-1.524.969 4.132 4.132 0 00-.957 1.501 5.476 5.476 0 00-.332 1.948c0 .66.1 1.276.302 1.85.202.576.501 1.077.899 1.503.397.426.895.765 1.495 1.017.598.252 1.289.384 2.07.397.599 0 1.15-.064 1.651-.193a6.066 6.066 0 001.368-.524 4.92 4.92 0 001.084-.774c.312-.298.567-.62.762-.97v2.985zM194.491 12.386h-7.483v5.872h-2.442V4.693h2.442v5.465h7.483V4.693h2.441v13.565h-2.441v-5.872z" fill="#34B7AA"/><path d="M11.444 11.032L7.085 8.32v3.261l4.359 2.712 10.431-7.626a11.323 11.323 0 00-1.374-2.257l-9.057 6.622z" fill="#fff"/><path d="M22.896 11.356c0-.695-.063-1.377-.184-2.036l-2.465 1.802c.002.078.004.156.004.234 0 4.814-3.948 8.73-8.804 8.73-4.853 0-8.8-3.916-8.8-8.73s3.947-8.732 8.8-8.732c1.841 0 3.55.563 4.965 1.523L18.64 2.52A11.462 11.462 0 0011.448 0C5.125 0 0 5.083 0 11.356 0 17.627 5.126 22.71 11.447 22.71c6.323 0 11.449-5.083 11.449-11.354zM35.615 10.26c-1.59-.374-2.962-.694-2.962-1.795 0-1.473 1.827-1.631 2.614-1.631 1.09 0 1.71.148 2.522.513l2.19-1.601c-1.184-.748-2.964-1.333-4.694-1.333-4.123 0-5.592 2.174-5.592 4.21 0 2.931 2.57 3.542 4.837 4.081 1.592.377 2.968.704 2.968 1.822 0 .574-.344 1.535-2.653 1.535-1.533 0-3.21-.535-4.402-1.397l-1.002 2.273c1.214.94 3.319 1.546 5.384 1.546 3.42 0 5.631-1.648 5.631-4.191 0-2.902-2.572-3.502-4.841-4.033zM49.861 15.975h-3.69v-3.481h3.69c1.683 0 2.538.579 2.538 1.742 0 1.164-.831 1.74-2.538 1.74zm-3.69-5.746h3.153-3.152zm0-3.323h3.153c1.986 0 2.404.908 2.404 1.661 0 1.095-.83 1.662-2.404 1.662h-3.152V6.906zm6.813 4.32l-.14-.047.13-.07c1.13-.607 1.75-1.66 1.75-2.962 0-2.197-1.875-3.505-5.016-3.505h-6.494V18.24h6.877c3.42 0 5.304-1.307 5.304-3.681 0-1.618-.879-2.831-2.41-3.332zM65.42 6.906l3.097-2.264H58.153V18.24h10.364v-2.265H61.11v-3.481h6.318v-2.265H61.11V6.906h4.31zM74.227 6.906h2.623c1.894 0 2.937.926 2.937 2.61 0 1.681-1.043 2.61-2.938 2.61h-2.622v-5.22zM82.96 18.24l-3.01-4.417c1.776-.77 2.8-2.283 2.8-4.315 0-3-2.237-4.866-5.84-4.866H71.27V18.24h2.958v-3.852h2.685c.085 0 .167-.002.25-.004l2.629 3.856h3.17z" fill="#fff"/></svg>
